assets/icons/qvision/keyboard_hide.svg

<svg xmlns="http://www.w3.org/2000/svg" height="24" viewBox="0 0 24 24" width="24"><path d="M0 0h24v24H0z" fill="none"/><path d="M20 3H4c-1.1 0-1.99.9-1.99 2L2 15c0 1.1.9 2 2 2h16c1.1 0 2-.9 2-2V5c0-1.1-.9-2-2-2zm-9 3h2v2h-2V6zm0 3h2v2h-2V9zM8 6h2v2H8V6zm0 3h2v2H8V9zm-1 2H5V9h2v2zm0-3H5V6h2v2zm9 7H8v-2h8v2zm0-4h-2V9h2v2zm0-3h-2V6h2v2zm3 3h-2V9h2v2zm0-3h-2V6h2v2zm-7 15 4-4H8l4 4z"/></svg>

<svg width="24" height="24" viewBox="0 0 24 24" fill="none" xmlns="http://www.w3.org/2000/svg">
<g clip-path="url(#clip0_147_2995)">
<path d="M20 3H4C2.9 3 2.01 3.9 2.01 5L2 15C2 16.1 2.9 17 4 17H20C21.1 17 22 16.1 22 15V5C22 3.9 21.1 3 20 3ZM11 6H13V8H11V6ZM11 9H13V11H11V9ZM8 6H10V8H8V6ZM8 9H10V11H8V9ZM7 11H5V9H7V11ZM7 8H5V6H7V8ZM16 15H8V13H16V15ZM16 11H14V9H16V11ZM16 8H14V6H16V8ZM19 11H17V9H19V11ZM19 8H17V6H19V8ZM12 23L16 19H8L12 23Z" fill="#323232"/>
</g>
<defs>
<clipPath id="clip0_147_2995">
<rect width="24" height="24" fill="white"/>
</clipPath>
</defs>
</svg>
